[A]
T2@2V15,3
L3O4EO3GO4CE5O3GO4CEO4F+O3AO4DF+5O3AO4DF+
L3O4EO3GO4CE5O3GO4CEO4F+O3AO4DF+5O3AO4DF+
L3O4ACFA5CFAO4GO3A+O4D+G5O3A+O4D+G
L3O4ACFA5CFAO4GO3A+O4D+G5O3A+O4D+G
L3O4EO3GO4CE5O3GO4CEO4F+O3AO4DF+5O3AO4DF+
L3O4EO3GO4CE5O3GO4CEO4F+O3AO4DF+5O3AO4DF+
L3O4ACFA5CFAO4GO3A+O4D+G5O3A+O4D+G
L3O4ACFA5CFAO4GO3A+O4D+G5O3A+O4D+G
@15L3O5CCCCDDDDO4BBBBO5EEEE
L3O5CCCCDDDDO5D+D+D+D+G+G+G+G+
L3O5CCCCDDDDO4BBBBO5EEEE
L3O5CCCCDDDDO5D+D+D+D+G+G+G+G+
[B]
T2@14V15,3
L3O4CCCCCCCCO4DDDDDDDD
L3O4CCCCCCCCO4DDDDDDDD
L3O4FFFFFFFFO4D+D+D+D+D+D+D+D+
L3O4FFFFFFFFO4D+D+D+D+D+D+D+D+
L3O4CCCCCCCCO4DDDDDDDD
L3O4CCCCCCCCO4DDDDDDDD
L3O4FFFFFFFFO4D+D+D+D+D+D+D+D+
L3O4FFFFFFFFO4D+D+D+D+D+D+D+D+
L3O4EEEEFFFFO4EEEEG+G+G+G+
L3O4EEEEFFFFO4G+G+G+G+O5CCCC
L3O4EEEEFFFFO4EEEEG+G+G+G+
L3O4EEEEFFFFO4G+G+G+G+O5CCCC
[C]
T2@2V15,3
L3O3EO2GO3CE5O2GO3CEO3F+O2AO3DF+5O2AO3DF+
L3O3EO2GO3CE5O2GO3CEO3F+O2AO3DF+5O2AO3DF+
L3O3ACFA5CFAO3GO2A+O3D+G5O2A+O3D+G
L3O3ACFA5CFAO3GO2A+O3D+G5O2A+O3D+G
L3O3EO2GO3CE5O2GO3CEO3F+O2AO3DF+5O2AO3DF+
L3O3EO2GO3CE5O2GO3CEO3F+O2AO3DF+5O2AO3DF+
L3O3ACFA5CFAO3GO2A+O3D+G5O2A+O3D+G
L3O3ACFA5CFAO3GO2A+O3D+G5O2A+O3D+G
@15L3O4AAAABBBBO4G+G+G+G+BBBB
L3O4AAAABBBBO5CCCCD+D+D+D+
L3O4AAAABBBBO4G+G+G+G+BBBB
L3O4AAAABBBBO5CCCCD+D+D+D+
